resources/SLDS/icons/standard/campaign_members.svg

<svg xmlns="http://www.w3.org/2000/svg" height="100" width="100" viewBox="0 0 100 100" fill="#fff"><path d="m100 62v38h-38zm-7.8 27.6c-1.3-.5-1.5-1-1.5-1.6 0-.5.4-1 .8-1.4.8-.7 1.2-1.6 1.2-2.7 0-2.1-1.3-3.8-3.7-3.8s-3.7 1.8-3.7 3.8c0 1.1.4 2.1 1.2 2.7.4.4.8.9.8 1.4s-.2 1-1.5 1.6c-1.9.8-3.8 1.7-3.8 3.4 0 1.1.9 2.1 2 2.1h10c1.1 0 2-1 2-2.1 0-1.8-1.9-2.7-3.8-3.4z" fill-opacity=".65"/><path d="m50 20c-16.5 0-30 13.5-30 30s13.5 30 30 30 30-13.5 30-30-13.5-30-30-30zm0 54c-13.2 0-24-10.8-24-24s10.8-24 24-24 24 10.8 24 24-10.8 24-24 24z"/><path d="m50 32c-9.9 0-18 8.1-18 18s8.1 18 18 18 18-8.1 18-18-8.1-18-18-18zm0 30c-6.6 0-12-5.4-12-12s5.4-12 12-12 12 5.4 12 12-5.4 12-12 12z"/><path d="m50 44c-3.3 0-6 2.7-6 6s2.7 6 6 6 6-2.7 6-6-2.7-6-6-6z"/></svg>

<svg xmlns="http://www.w3.org/2000/svg" x="0px" y="0px"
	 width="100px" height="100px" viewBox="0 0 100 100" enable-background="new 0 0 100 100" xml:space="preserve">
<path fill="#FFFFFF" fill-opacity="0.65" d="M100,62v38H62L100,62z M92.2,89.6c-1.3-0.5-1.5-1-1.5-1.6c0-0.5,0.4-1,0.8-1.4
	c0.8-0.7,1.2-1.6,1.2-2.7c0-2.1-1.3-3.8-3.7-3.8s-3.7,1.8-3.7,3.8c0,1.1,0.4,2.1,1.2,2.7c0.4,0.4,0.8,0.9,0.8,1.4s-0.2,1-1.5,1.6
	C83.9,90.4,82,91.3,82,93c0,1.1,0.9,2.1,2,2.1h5h5c1.1,0,2-1,2-2.1C96,91.2,94.1,90.3,92.2,89.6L92.2,89.6z"/>
<g>
	<path fill="#FFFFFF" d="M50,20c-16.5,0-30,13.5-30,30s13.5,30,30,30s30-13.5,30-30S66.5,20,50,20z M50,74c-13.2,0-24-10.8-24-24
		s10.8-24,24-24s24,10.8,24,24S63.2,74,50,74z"/>
</g>
<g>
	<path fill="#FFFFFF" d="M50,32c-9.9,0-18,8.1-18,18s8.1,18,18,18s18-8.1,18-18S59.9,32,50,32z M50,62c-6.6,0-12-5.4-12-12
		s5.4-12,12-12s12,5.4,12,12S56.6,62,50,62z"/>
</g>
<g>
	<path fill="#FFFFFF" d="M50,44c-3.3,0-6,2.7-6,6s2.7,6,6,6s6-2.7,6-6S53.3,44,50,44z"/>
</g>
</svg>
